brand-assets/voidzero/voidzero-icon-dark.svg

<svg width="78" height="47" viewBox="0 0 78 47" fill="none" xmlns="http://www.w3.org/2000/svg">
<path d="M13.1338 0C3.93793 13.1662 3.88404 33.5745 13.1338 46.7881H6.91895C-2.33292 33.5745 -2.27903 13.1662 6.91895 0H13.1338ZM70.1094 0C79.3052 13.1661 79.359 33.5745 70.1094 46.7881H63.8945C73.1464 33.5745 73.0926 13.1662 63.8945 0H70.1094ZM38.5146 0.0644531C51.4011 0.0644948 61.8447 10.5103 61.8447 23.3945C61.8447 36.2788 51.3989 46.7246 38.5146 46.7246C25.6303 46.7246 15.1846 36.2788 15.1846 23.3945C15.1846 10.5102 25.6303 0.0644618 38.5146 0.0644531ZM52.7256 13.5947C52.3807 12.8218 51.3447 12.6772 50.8105 13.334L30.6299 38.084C30.1475 38.6784 30.3803 39.568 31.0908 39.8525C33.1804 40.6883 35.6539 41.1025 38.5146 41.1025C49.1025 41.1025 54.458 35.4149 54.458 23.3945C54.458 19.446 53.8781 16.1884 52.7256 13.5947ZM38.5146 5.75195C27.8664 5.75196 22.5713 11.4387 22.5713 23.3945C22.5713 27.3582 23.1491 30.6325 24.3037 33.2412C24.6463 34.0166 25.6845 34.1609 26.2188 33.5039L46.3623 8.75293C46.847 8.15839 46.6124 7.26564 45.8994 6.9834C43.8163 6.15836 41.3538 5.75196 38.5146 5.75195Z" fill="#08060E"/>
</svg>

<svg xmlns="http://www.w3.org/2000/svg" width="78" height="47" fill="none" viewBox="0 0 78 47"><path fill="#08060e" d="M13.134 0c-9.196 13.166-9.25 33.575 0 46.788H6.919C-2.333 33.575-2.28 13.166 6.919 0zm56.975 0c9.196 13.166 9.25 33.575 0 46.788h-6.214c9.251-13.213 9.198-33.622 0-46.788zM38.515.064c12.886 0 23.33 10.446 23.33 23.33 0 12.885-10.446 23.33-23.33 23.33-12.885 0-23.33-10.445-23.33-23.33S25.63.065 38.515.065m14.21 13.53a1.134 1.134 0 0 0-1.915-.26l-20.18 24.75a1.134 1.134 0 0 0 .46 1.768q3.134 1.252 7.425 1.25c10.587 0 15.943-5.687 15.943-17.707 0-3.949-.58-7.207-1.732-9.8m-14.21-7.842c-10.649 0-15.944 5.687-15.944 17.643 0 3.963.578 7.238 1.733 9.846.342.776 1.38.92 1.915.263L46.362 8.753a1.133 1.133 0 0 0-.463-1.77c-2.083-.825-4.545-1.231-7.384-1.231"/></svg>
